packages/kaspersky-hexa-ui-icons/src/iconsSVGs/24/RemoteControl.svg

<svg width="24" height="24" viewBox="0 0 24 24" fill="none" xmlns="http://www.w3.org/2000/svg">
<path fill-rule="evenodd" clip-rule="evenodd" d="M19 8H20C21.6569 8 23 9.34315 23 11V19C23 20.6569 21.6569 22 20 22H8C6.34315 22 5 20.6569 5 19V17H4C2.34315 17 1 15.6569 1 14V6C1 4.34315 2.34315 3 4 3H16C17.6569 3 19 4.34315 19 6V8ZM3 6V14C3 14.5523 3.44772 15 4 15H5V11C5 9.34315 6.34315 8 8 8H17V6L3 6ZM8 20C7.44772 20 7 19.5523 7 19V11H21V19C21 19.5523 20.5523 20 20 20H8Z" fill="black"/>
</svg>

<svg xmlns="http://www.w3.org/2000/svg" width="24" height="24" fill="none" viewBox="0 0 24 24"><path fill="#000" fill-rule="evenodd" d="M19 8h1c1.6569 0 3 1.3431 3 3v8c0 1.6569-1.3431 3-3 3H8c-1.6569 0-3-1.3431-3-3v-2H4c-1.6568 0-3-1.3431-3-3V6c0-1.6569 1.3432-3 3-3h12c1.6569 0 3 1.3431 3 3zM3 6v8c0 .5523.4477 1 1 1h1v-4c0-1.6569 1.3431-3 3-3h9V6zm5 14c-.5523 0-1-.4477-1-1v-8h14v8c0 .5523-.4477 1-1 1z"/></svg>
